src/pos-icons/wall.svg

<svg height="24" viewBox="0 0 24 24" width="24" xmlns="http://www.w3.org/2000/svg"><path d="m3 16h9v5h-9zm-1-6h6v5h-6zm7 0h6v5h-6zm7 0h6v5h-6zm-3 6h8v5h-8zm-10-12h8v5h-8zm9 0h9v5h-9z"/></svg>

<?xml version="1.0" encoding="UTF-8"?><!DOCTYPE svg PUBLIC "-//W3C//DTD SVG 1.1//EN" "http://www.w3.org/Graphics/SVG/1.1/DTD/svg11.dtd"><svg xmlns="http://www.w3.org/2000/svg" xmlns:xlink="http://www.w3.org/1999/xlink" version="1.1" id="mdi-wall" width="24" height="24" viewBox="0 0 24 24"><path d="M3,16H12V21H3V16M2,10H8V15H2V10M9,10H15V15H9V10M16,10H22V15H16V10M13,16H21V21H13V16M3,4H11V9H3V4M12,4H21V9H12V4Z" /></svg>
